X: 1
T: Carrick Tinker, The
M: 3/4
L: 1/8
R: waltz
K: Gmaj
B2| A4B2| c2B2A2 | B2A2G2| A2G2E2 | A4B2| c4e2 | d2B2G2 | G4E2 |
A4B2| c2B2A2 | B2A2G2 | A4ef | g2b2a2| g4B2 | d2B2G2| G4B2 |
e4de |e2d2B2 | e4A2| A2B2d2 | e2d2e2 |e2d2B2 | d2B2G2 | G3GAB |
e4de| e2d2B2 | e4A2| A4ef | g2b2a2 |g4e2 | d2B2G2 |G4B2 |
c4A2| B4A2 | d4B2 |G4B2 | c4A2| B4A2 | d2B2G2| G2B2d2 |
c4BA| B2A2G2 | A2G2E2| G4AB | c2e2d2| c4A2 | B2A2G2| G4||
